src/assets/indiaflag.svg

<svg width="20" height="14" viewBox="0 0 20 14" fill="none" xmlns="http://www.w3.org/2000/svg">
<g clip-path="url(#clip0_17512_623)">
<path d="M1.09212 0H18.9079C19.5101 0.00323105 20 0.492736 20 1.09048V12.719C20 13.3184 19.5052 13.8095 18.9014 13.8095H1.09212C0.491536 13.8063 0 13.3168 0 12.719V1.09048C0 0.492736 0.489909 0.00323105 1.09212 0Z" fill="#FF9933"/>
<path d="M0 4.60266H20V9.20691H0V4.60266Z" fill="white"/>
<path d="M0 9.20691H20V12.7191C20 13.3184 19.5052 13.8095 18.9014 13.8095H1.09212C0.491536 13.8063 0 13.3168 0 12.7191V9.20691Z" fill="#128807"/>
<path d="M11.8555 6.90481C11.8555 5.88703 11.0254 5.06311 10 5.06311C8.97461 5.06311 8.14453 5.88703 8.14453 6.90481C8.14453 7.92098 8.97461 8.74651 10 8.74651C11.0254 8.74651 11.8555 7.92259 11.8555 6.90481Z" fill="#000088"/>
<path d="M11.6224 6.90475C11.6224 6.01459 10.8965 5.29407 9.99967 5.29407C9.10286 5.29407 8.37695 6.01459 8.37695 6.90475C8.37695 7.7949 9.10286 8.51543 9.99967 8.51543C10.8965 8.51543 11.6224 7.7949 11.6224 6.90475Z" fill="white"/>
<path d="M10.3236 6.90477C10.3236 6.72706 10.1787 6.58167 9.99967 6.58167C9.82064 6.58167 9.67578 6.72545 9.67578 6.90477C9.67578 7.08248 9.82064 7.22626 9.99967 7.22626C10.1787 7.22626 10.3236 7.08248 10.3236 6.90477Z" fill="#000088"/>
<path d="M11.6893 7.12608C11.6958 7.08246 11.6633 7.04208 11.6193 7.03561C11.5754 7.02915 11.5347 7.06146 11.5282 7.10508C11.5217 7.1487 11.5542 7.18909 11.5982 7.19555C11.6437 7.2004 11.6844 7.1697 11.6893 7.12608Z" fill="#000088"/>
<path d="M9.99967 8.5155L10.055 7.54941L9.99967 7.08899L9.94434 7.54941L9.99967 8.5155Z" fill="#000088"/>
<path d="M11.5741 7.55254C11.592 7.51215 11.5709 7.46368 11.5302 7.44753C11.4895 7.42976 11.4407 7.45076 11.4244 7.49115C11.4065 7.53153 11.4276 7.58 11.4683 7.59616C11.5106 7.61231 11.5578 7.59292 11.5741 7.55254Z" fill="black"/>
<path d="M9.58008 8.46056L9.88607 7.54133L9.9528 7.08252L9.77865 7.51386L9.58008 8.46056Z" fill="black"/>
<path d="M11.3527 7.93552C11.3804 7.89998 11.3739 7.84989 11.3381 7.82243C11.3023 7.79497 11.2518 7.80143 11.2242 7.83697C11.1965 7.87251 11.203 7.92259 11.2388 7.95006C11.2746 7.97752 11.3251 7.96944 11.3527 7.93552Z" fill="black"/>
<path d="M9.1875 8.30058L9.72298 7.4912L9.9069 7.0647L9.62695 7.43465L9.1875 8.30058Z" fill="black"/>
<path d="M11.0363 8.2473C11.0722 8.21983 11.0787 8.16975 11.051 8.13421C11.0233 8.09867 10.9729 8.09221 10.9371 8.11967C10.9013 8.14714 10.8947 8.19722 10.9224 8.23276C10.9501 8.26668 11.0022 8.27476 11.0363 8.2473Z" fill="black"/>
<path d="M8.85254 8.04373L9.58008 7.39914L9.86816 7.03564L9.50195 7.32159L8.85254 8.04373Z" fill="black"/>
<path d="M10.6522 8.46859C10.6929 8.45082 10.7141 8.40397 10.6962 8.36358C10.6783 8.32319 10.6311 8.30219 10.5904 8.31996C10.5497 8.33612 10.5285 8.38458 10.5465 8.42497C10.5627 8.46536 10.6099 8.48475 10.6522 8.46859Z" fill="black"/>
<path d="M8.59375 7.71089L9.46615 7.2747L9.83887 6.99683L9.40918 7.17938L8.59375 7.71089Z" fill="black"/>
<path d="M10.2225 8.5817C10.2665 8.57524 10.2974 8.53485 10.2925 8.49124C10.286 8.44762 10.2453 8.41692 10.2014 8.42177C10.1574 8.42823 10.1265 8.46862 10.1314 8.51224C10.1362 8.55747 10.1769 8.58817 10.2225 8.5817Z" fill="black"/>
<path d="M8.43262 7.32159L9.38802 7.12449L9.82096 6.95325L9.35872 7.01787L8.43262 7.32159Z" fill="black"/>
<path d="M9.77655 8.58166C9.82049 8.58812 9.86118 8.55581 9.86769 8.51219C9.87421 8.46857 9.84165 8.42818 9.79771 8.42172C9.75376 8.41526 9.71307 8.44757 9.70656 8.49119C9.70168 8.53643 9.7326 8.57681 9.77655 8.58166Z" fill="black"/>
<path d="M8.37695 6.90478L9.35026 6.95971L9.81413 6.90478L9.35026 6.84985L8.37695 6.90478Z" fill="black"/>
<path d="M9.34753 8.46859C9.38822 8.48636 9.43705 8.46536 9.45333 8.42497C9.4696 8.38458 9.45007 8.33612 9.40938 8.31996C9.36869 8.30219 9.31986 8.32319 9.30359 8.36358C9.28731 8.40397 9.30684 8.45082 9.34753 8.46859Z" fill="black"/>
<path d="M8.43262 6.48792L9.35872 6.79163L9.82096 6.85787L9.38802 6.68501L8.43262 6.48792Z" fill="black"/>
<path d="M8.96126 8.2473C8.99707 8.27476 9.04753 8.2683 9.0752 8.23276C9.10287 8.19722 9.09636 8.14714 9.06055 8.11967C9.02474 8.09221 8.97429 8.09867 8.94662 8.13421C8.92057 8.16975 8.92709 8.21983 8.96126 8.2473Z" fill="black"/>
<path d="M8.59375 6.09863L9.40918 6.63014L9.83887 6.8127L9.46615 6.53483L8.59375 6.09863Z" fill="black"/>
<path d="M8.64751 7.93552C8.67518 7.97106 8.72563 7.97752 8.76144 7.95006C8.79725 7.92259 8.80376 7.87251 8.77609 7.83697C8.74842 7.80143 8.69796 7.79497 8.66216 7.82243C8.62798 7.84828 8.61984 7.89998 8.64751 7.93552Z" fill="black"/>
<path d="M8.85254 5.76587L9.50195 6.48801L9.86816 6.77557L9.58008 6.41046L8.85254 5.76587Z" fill="black"/>
<path d="M8.42468 7.55254C8.44258 7.59292 8.48978 7.61393 8.53047 7.59616C8.57116 7.57838 8.59232 7.53153 8.57442 7.49115C8.55652 7.45076 8.50931 7.42976 8.46862 7.44753C8.42793 7.46368 8.4084 7.51053 8.42468 7.55254Z" fill="black"/>
<path d="M9.1875 5.50891L9.62695 6.37483L9.9069 6.74479L9.72298 6.31991L9.1875 5.50891Z" fill="black"/>
<path d="M8.31044 7.12613C8.31695 7.16975 8.35764 7.20044 8.40158 7.1956C8.44553 7.18913 8.47645 7.14875 8.47157 7.10513C8.46506 7.06151 8.42437 7.03081 8.38042 7.03566C8.33485 7.04051 8.30392 7.08089 8.31044 7.12613Z" fill="black"/>
<path d="M9.58008 5.349L9.77865 6.29731L9.9528 6.72704L9.88607 6.26823L9.58008 5.349Z" fill="black"/>
<path d="M8.3104 6.68337C8.30389 6.72699 8.33644 6.76738 8.38039 6.77384C8.42433 6.78031 8.46502 6.748 8.47153 6.70438C8.47804 6.66076 8.44549 6.62037 8.40155 6.61391C8.35597 6.60906 8.31528 6.63975 8.3104 6.68337Z" fill="black"/>
<path d="M9.99967 5.29407L9.94434 6.26015L9.99967 6.72058L10.055 6.26015L9.99967 5.29407Z" fill="black"/>
<path d="M8.42633 6.25695C8.40843 6.29734 8.42959 6.34581 8.47028 6.36196C8.51097 6.37812 8.5598 6.35873 8.57607 6.31834C8.59398 6.27795 8.57282 6.22949 8.53213 6.21333C8.48981 6.19718 8.44261 6.21656 8.42633 6.25695Z" fill="black"/>
<path d="M10.4196 5.349L10.1136 6.26823L10.0469 6.72704L10.221 6.29731L10.4196 5.349Z" fill="black"/>
<path d="M8.64702 5.87567C8.61935 5.91121 8.62586 5.96129 8.66167 5.98875C8.69748 6.01622 8.74793 6.00976 8.7756 5.97421C8.80327 5.93867 8.79676 5.88859 8.76095 5.86113C8.72515 5.83366 8.67469 5.84013 8.64702 5.87567Z" fill="black"/>
<path d="M10.8122 5.50891L10.2767 6.31991L10.0928 6.74479L10.3727 6.37483L10.8122 5.50891Z" fill="black"/>
<path d="M8.96343 5.56222C8.92762 5.58969 8.92111 5.63977 8.94878 5.67531C8.97645 5.71085 9.0269 5.71731 9.06271 5.68985C9.09852 5.66239 9.10503 5.61231 9.07736 5.57676C9.04969 5.54122 8.99761 5.53638 8.96343 5.56222Z" fill="black"/>
<path d="M11.1475 5.76587L10.4199 6.41046L10.1318 6.77557L10.498 6.48801L11.1475 5.76587Z" fill="black"/>
<path d="M9.34753 5.34253C9.30684 5.3603 9.28731 5.40715 9.30359 5.44754C9.32149 5.48792 9.36869 5.50893 9.40938 5.49115C9.45007 5.47338 9.47123 5.42653 9.45333 5.38615C9.43705 5.34414 9.38985 5.32476 9.34753 5.34253Z" fill="black"/>
<path d="M11.4063 6.09863L10.5339 6.53483L10.1611 6.8127L10.5908 6.63014L11.4063 6.09863Z" fill="black"/>
<path d="M9.77655 5.22788C9.7326 5.23434 9.70168 5.27473 9.70656 5.31834C9.71307 5.36196 9.75376 5.39266 9.79771 5.38781C9.84165 5.38135 9.87421 5.34096 9.86769 5.29734C9.86281 5.25372 9.82212 5.22141 9.77655 5.22788Z" fill="black"/>
<path d="M11.5671 6.48792L10.6117 6.68501L10.1787 6.85787L10.6409 6.79163L11.5671 6.48792Z" fill="black"/>
<path d="M10.2228 5.22788C10.1789 5.22141 10.1382 5.25372 10.1317 5.29734C10.1252 5.34096 10.1577 5.38135 10.2017 5.38781C10.2456 5.39427 10.2863 5.36196 10.2928 5.31834C10.2977 5.27473 10.2668 5.23272 10.2228 5.22788Z" fill="black"/>
<path d="M11.6227 6.90478L10.6494 6.84985L10.1855 6.90478L10.6494 6.95971L11.6227 6.90478Z" fill="black"/>
<path d="M10.6522 5.34255C10.6116 5.32478 10.5627 5.34578 10.5465 5.38617C10.5285 5.42655 10.5497 5.47502 10.5904 5.49118C10.6311 5.50733 10.6799 5.48794 10.6962 5.44756C10.7125 5.40555 10.6929 5.3587 10.6522 5.34255Z" fill="black"/>
<path d="M11.5671 7.32159L10.6409 7.01787L10.1787 6.95325L10.6117 7.12449L11.5671 7.32159Z" fill="black"/>
<path d="M11.0363 5.5623C11.0005 5.53483 10.9501 5.5413 10.9224 5.57684C10.8947 5.61238 10.9013 5.66246 10.9371 5.68993C10.9729 5.71739 11.0233 5.71093 11.051 5.67539C11.0787 5.63984 11.0722 5.58976 11.0363 5.5623Z" fill="black"/>
<path d="M11.4063 7.71089L10.5908 7.17938L10.1611 6.99683L10.5339 7.2747L11.4063 7.71089Z" fill="black"/>
<path d="M11.3527 5.87567C11.3251 5.84013 11.2746 5.83366 11.2388 5.86113C11.203 5.88859 11.1965 5.93867 11.2242 5.97421C11.2518 6.00976 11.3023 6.01622 11.3381 5.98875C11.3723 5.96129 11.3804 5.90959 11.3527 5.87567Z" fill="black"/>
<path d="M11.1475 8.04373L10.498 7.32159L10.1318 7.03564L10.4199 7.39914L11.1475 8.04373Z" fill="black"/>
<path d="M11.5751 6.25689C11.5572 6.21651 11.51 6.1955 11.4693 6.21327C11.4286 6.23104 11.4075 6.2779 11.4254 6.31828C11.4433 6.35867 11.4905 6.37806 11.5312 6.3619C11.5718 6.34575 11.5914 6.2989 11.5751 6.25689Z" fill="black"/>
<path d="M10.8122 8.30058L10.3727 7.43465L10.0928 7.0647L10.2767 7.4912L10.8122 8.30058Z" fill="black"/>
<path d="M11.689 6.68337C11.6825 6.63975 11.6418 6.60906 11.5978 6.61391C11.5539 6.62037 11.523 6.66076 11.5279 6.70438C11.5344 6.748 11.5751 6.77869 11.619 6.77384C11.6646 6.769 11.6955 6.72861 11.689 6.68337Z" fill="black"/>
<path d="M10.4196 8.46056L10.221 7.51386L10.0469 7.08252L10.1136 7.54133L10.4196 8.46056Z" fill="black"/>
</g>
<defs>
<clipPath id="clip0_17512_623">
<rect width="20" height="13.8095" fill="white"/>
</clipPath>
</defs>
</svg>

<svg xmlns="http://www.w3.org/2000/svg" width="20" height="14" fill="none"><g clip-path="url(#a)"><path fill="#F93" d="M1.092 0h17.816A1.097 1.097 0 0 1 20 1.09V12.72c0 .6-.495 1.09-1.099 1.09H1.092A1.1 1.1 0 0 1 0 12.72V1.09C0 .493.49.003 1.092 0"/><path fill="#fff" d="M0 4.603h20v4.604H0z"/><path fill="#128807" d="M0 9.207h20v3.512c0 .6-.495 1.09-1.099 1.09H1.092A1.1 1.1 0 0 1 0 12.72z"/><path fill="#008" d="M11.856 6.905c0-1.018-.83-1.842-1.856-1.842a1.85 1.85 0 0 0-1.855 1.842c0 1.016.83 1.842 1.855 1.842a1.85 1.85 0 0 0 1.855-1.842"/><path fill="#fff" d="M11.622 6.905c0-.89-.726-1.61-1.622-1.61s-1.623.72-1.623 1.61.726 1.61 1.623 1.61c.896 0 1.622-.72 1.622-1.61"/><path fill="#008" d="M10.324 6.905a.324.324 0 0 0-.648 0c0 .177.145.321.324.321a.323.323 0 0 0 .324-.321M11.69 7.126a.08.08 0 0 0-.07-.09.08.08 0 0 0-.092.07.081.081 0 0 0 .161.02"/><path fill="#008" d="m10 8.516.055-.967L10 7.09l-.056.46z"/><path fill="#000" d="M11.574 7.553a.081.081 0 0 0-.15-.061.08.08 0 0 0 .044.104.08.08 0 0 0 .106-.043M9.58 8.46l.306-.919.067-.458-.174.43zM11.353 7.936a.08.08 0 0 0-.015-.114.08.08 0 0 0-.114.015.08.08 0 0 0 .015.113c.036.028.086.02.114-.014M9.188 8.3l.535-.809.184-.426-.28.37zM11.036 8.247a.08.08 0 0 0 .015-.113.08.08 0 0 0-.114-.014.08.08 0 0 0-.015.113c.028.034.08.042.114.014M8.853 8.044l.727-.645.288-.363-.366.286zM10.652 8.469c.04-.018.062-.065.044-.105a.08.08 0 0 0-.106-.044.08.08 0 0 0-.043.105c.016.04.063.06.105.044M8.594 7.71l.872-.435.373-.278-.43.182zM10.223 8.582a.083.083 0 0 0 .07-.09.083.083 0 0 0-.092-.07.083.083 0 0 0-.07.09.08.08 0 0 0 .091.07M8.433 7.322l.955-.198.433-.17-.462.064zM9.777 8.582a.08.08 0 0 0 .09-.07.08.08 0 0 0-.07-.09.08.08 0 0 0-.09.07.08.08 0 0 0 .07.09M8.377 6.905l.973.055.464-.055-.464-.055zM9.348 8.469c.04.017.089-.004.105-.044a.081.081 0 0 0-.15-.061.08.08 0 0 0 .045.105M8.433 6.488l.926.304.462.066-.433-.173zM8.961 8.247a.08.08 0 0 0 .114-.014.081.081 0 0 0-.129-.099.083.083 0 0 0 .015.113M8.594 6.099l.815.531.43.183-.373-.278zM8.648 7.936a.081.081 0 0 0 .128-.099.081.081 0 0 0-.128.099M8.853 5.766l.649.722.366.288-.288-.366zM8.425 7.553c.018.04.065.06.105.043.041-.018.062-.064.044-.105a.08.08 0 0 0-.15.061M9.188 5.509l.439.866.28.37-.184-.425zM8.31 7.126a.083.083 0 0 0 .092.07.083.083 0 0 0 .07-.09.083.083 0 0 0-.092-.07.08.08 0 0 0-.07.09M9.58 5.349l.199.948.174.43-.067-.459zM8.31 6.683a.08.08 0 0 0 .07.09.08.08 0 0 0 .092-.069.081.081 0 0 0-.162-.02M10 5.294l-.056.966.056.46.055-.46zM8.426 6.257a.08.08 0 0 0 .044.105c.041.016.09-.003.106-.044a.08.08 0 0 0-.044-.105.08.08 0 0 0-.106.044M10.42 5.349l-.306.92-.067.458.174-.43zM8.647 5.876a.08.08 0 0 0 .015.113.08.08 0 0 0 .114-.015.08.08 0 0 0-.015-.113.08.08 0 0 0-.114.015M10.812 5.509l-.535.81-.184.426.28-.37zM8.963 5.562a.08.08 0 0 0-.014.113.081.081 0 0 0 .128-.098.083.083 0 0 0-.114-.015M11.148 5.766l-.728.644-.288.366.366-.288zM9.348 5.343a.08.08 0 0 0-.044.105c.017.04.065.06.105.043.041-.018.062-.064.044-.105a.08.08 0 0 0-.105-.043M11.406 6.099l-.872.436-.373.278.43-.183zM9.777 5.228a.083.083 0 0 0-.07.09.083.083 0 0 0 .09.07.08.08 0 0 0 .07-.09.08.08 0 0 0-.09-.07M11.567 6.488l-.955.197-.433.173.462-.066zM10.223 5.228a.08.08 0 0 0-.091.07.08.08 0 0 0 .07.09.08.08 0 0 0 .09-.07.08.08 0 0 0-.07-.09M11.623 6.905l-.974-.055-.463.055.463.055zM10.652 5.343a.08.08 0 0 0-.105.043.08.08 0 0 0 .043.105c.041.016.09-.003.106-.043a.08.08 0 0 0-.044-.105M11.567 7.322l-.926-.304-.462-.065.433.171zM11.036 5.562a.08.08 0 0 0-.114.015.08.08 0 0 0 .015.113.08.08 0 0 0 .114-.015.08.08 0 0 0-.015-.113M11.406 7.71l-.815-.53-.43-.183.373.278zM11.353 5.876a.08.08 0 0 0-.114-.015.08.08 0 0 0-.015.113.081.081 0 0 0 .129-.098M11.148 8.044l-.65-.722-.366-.286.288.363zM11.575 6.257a.08.08 0 0 0-.106-.044c-.04.018-.061.065-.044.105s.066.06.106.044a.08.08 0 0 0 .044-.105M10.812 8.3l-.44-.865-.28-.37.185.426zM11.689 6.683a.083.083 0 0 0-.091-.07.083.083 0 0 0-.07.091.083.083 0 0 0 .091.07.08.08 0 0 0 .07-.09M10.42 8.46l-.199-.946-.174-.431.067.458z"/></g><defs><clipPath id="a"><path fill="#fff" d="M0 0h20v13.809H0z"/></clipPath></defs></svg>
